src/24/panel/xfpm-brightness-lcd.svg

<svg xmlns="http://www.w3.org/2000/svg" width="24" height="24" version="1.1">
 <defs>
  <style id="current-color-scheme" type="text/css">
   .ColorScheme-Text { color:#dfdfdf; } .ColorScheme-Highlight { color:#4285f4; }
  </style>
 </defs>
 <path style="fill:currentColor" class="ColorScheme-Text" d="m 12.00015,4.721 -2.1894999,2.2793 -2.8105001,0 0,2.8105 -2.2792999,2.1895 2.2792999,2.2207 0,2.779 2.8105001,0 2.1894999,2.279 2.221,-2.279 2.779,0 0,-2.779 2.279,-2.2207 -2.279,-2 0,-3 -2.779,0 z m 0,3.2793001 c 2.21,0 4,1.7899999 4,3.9999999 0,2.2097 -1.79,3.9997 -4,3.9997 -2.21,0 -4,-1.79 -4,-3.9997 0,-2.2100001 1.79,-4 4,-4 z m 0,0.9999999 c -1.6569,0 -2.9999999,1.3431 -2.9999999,3 0,1.6569 1.3430999,2.9997 2.9999999,2.9997 z"/>
</svg>

<svg xmlns="http://www.w3.org/2000/svg" width="24" height="24"><defs><style id="current-color-scheme" type="text/css"></style></defs><path d="M12 4.721l-2.19 2.28H7v2.81L4.72 12 7 14.22V17h2.81L12 19.279 14.221 17h2.78v-2.779l2.278-2.22L17 10V7h-2.779zm0 3.28c2.21 0 4 1.79 4 4C16 14.21 14.21 16 12 16s-4-1.79-4-4 1.79-4 4-4zm0 1A3 3 0 1 0 12 15z" fill="currentColor" color="#323232"/></svg>
